X: 69
T:Gan Ainm
M:6/8
L:1/8
S:Terry Bingham, Comber, Down (Concertina)
R:Jig
D:Session tape - Cushendall 1993
Z:Bernie Stocks
K:G
ABA ABd | edB gdB | G3 BAB | dBG AGE | ABA ABd | edB def | gfe fdB | ABA A3 ::\
aba age | aga bge|  gag gdB | GBd gdg | aba age | edB def | g2e fdB | ABA A3 :|
<end>
<start>
